!!!!SEGMENT: 017-1a-Sm-002.krn
!!!COM: Chopin, Fryderyk
!!!OTL: Mazourka No. 2.
!!!OPS: Op. 17
!!!PTL: Quatre Mazurkas
!!!PPR: M. Schlesinger
!!!PPP: Paris
!!!AGN: Mazurka
!!!NIFC-rismID: 300605168
!!!NIFC-shelfmark: PL-Wbfc 1663/n
!!!OMD: M.M. [quarter] = 144.
!!!OMD: Lento ma non troppo.
**kern	**kern	**dynam
*part1	*part1	*part1
*staff2	*staff1	*
*clefF4	*clefG2	*
*k[f#]	*k[f#]	*
*e:	*e:	*
*M3/4	*M3/4	*
*MM144	*MM144	*
4r	(>4b	.
=1	=1	=1
*ped	*	*
4EE	8.aL	f
.	16gJk	.
4B 4G	4f#	.
4B 4G	4e	.
*Xped	*	*
.	.	.
=2	=2	=2
*ped	*	*
4AA	2dd^	.
4e 4c 4A	.	.
4e 4c 4A	4cc	.
*Xped	*	*
.	.	.
=3	=3	=3
*^	*	*
4e 4c	2.D	8.bL	.
.	.	16ak	.
4d 4B	.	8e	.
.	.	8f#J	.
4c 4A	.	4d	.
*v	*v	*	*
=4	=4	=4
.	8qg/	.
*ped	*	*
4GG	2cc:^\ 2g:	.
4d 4G	.	.
*Xped	*	*
4r	[>4b)	.
=5	=5	=5
*ped	*	*
4BB'	8b`L]	fz
.	16r	.
.	(>16cc'k 16b	<
*clefG2	*	*
4a 4f# 4B	8cc#X' 8b	.
.	8dd'J 8b	.
4a 4f# 4B	(4dd#X^< [4b)	[
*Xped	*	*
*clefF4	*	*
.	.	.
=6	=6	=6
*ped	*	*
4E'	8ee`L 8b])	.
.	16r	.
.	(>16ff#k	.
*clefG2	*	*
4g 4B	8gg	.
.	8cccJ	.
4g 4B	4bb^<)	.
*Xped	*	*
.	.	.
*clefF4	*	*
!!LO:LB:g=original
=7	=7	=7
*^	*	*
4r	2.E	8aa#X'L	.
.	.	16r	.
.	.	(>16ff#k	.
4f# 4c#X 4A#X	.	8aa#)	.
.	.	16r	.
.	.	(>16aanJk	.
4f# 4cn 4An	.	4ff#)	.
=8	=8	=8	=8
4r	2.E	8aan'L	.
.	.	16r	.
.	.	(>16ff#k	.
4d#X 4A	.	8aa')	.
.	.	16r	.
.	.	(>16gg^Jk	.
4e 4G	.	4ee)	.
*v	*v	*	*
=9	=9	=9
*ped	*	*
4BB	8b'L	fz
.	16r	.
.	(>16cc'k 16b	.
*clefG2	*	*
4a 4f# 4B	8cc#X' 8b	.
.	8dd'J 8b	.
4a 4f# 4B	4dd#X^< 4b)	.
*Xped	*	*
.	.	.
*clefF4	*	*
=10	=10	=10
*ped	*	*
(>4E	(>16eeKL	.
.	8ggg'J)	.
.	16r	.
4g 4B)	(>8fff#mL	.
.	8eee	>
4r	8ccc	.
*Xped	*	*
.	8bbJ)	]
=11	=11	=11
*ped	*	*
4FF#	(>8aa#XL	.
.	8ccc#X	f
4e 4c#X 4F#	8ddd#X 8bb	.
.	8gg#X	.
4e 4c# 4F#	8ee)	.
*Xped	*	*
.	16r	.
.	(>16aa#Jk 16ff#	.
=12	=12	=12
.	8qff#/ 8qaa#	.
*ped	*	*
!	!LO:SIC:s=2bb 2dd#:v	!
4BB	2bb^<) 2dd	.
4f# 4B	.	.
4r	(>4b^<	.
*Xped	*	*
.	.	.
!!LO:LB:g=original
=13	=13	=13
*ped	*	*
4EE	8.aL	.
.	16gJk	.
4B 4G	4f#	.
4B 4G	4e	.
*Xped	*	*
.	.	.
=14	=14	=14
*ped	*	*
4AA	2dd^	.
4e 4c 4A	.	.
4e 4c 4A	4cc	.
*Xped	*	*
.	.	.
=15	=15	=15
*^	*	*
4e 4c	2.D	8.bL	.
.	.	16ak	.
4d 4B	.	8e	.
.	.	8f#J	.
4c 4A	.	4d	.
*v	*v	*	*
=16	=16	=16
.	8qg/	.
*ped	*	*
4GG	2cc:^\ 2g:\	.
4d 4G	.	.
4r	[>4b)	.
*Xped	*	*
.	.	.
=17	=17	=17
*ped	*	*
4BB'	8b`L]	fz
.	16r	.
.	(>16cc'k 16b	<
*clefG2	*	*
4a 4f# 4B	8cc#X' 8b	.
.	8dd'J 8b	[
4a 4f# 4B	(>4dd#X^< [<4b)	.
*Xped	*	*
.	.	.
*clefF4	*	*
=18	=18	=18
*ped	*	*
4E'	8ee`L 8b])	.
.	16r	.
.	(>16ff#k	.
*clefG2	*	*
4g 4B	8gg	.
.	8cccJ	.
4g 4B	4bb^<)	.
*Xped	*	*
.	.	.
*clefF4	*	*
=19	=19	=19
*^	*	*
4r	2.E	8aa#X'L	.
.	.	16r	.
.	.	(>16ff#k	.
4f# 4c#X 4A#X	.	8aa#)	.
.	.	16r	.
.	.	(>16aanJk	.
4f# 4cn 4An	.	4ff#)	.
!!LO:LB:g=original
=20	=20	=20	=20
4r	2.E	8aan'L	.
.	.	16r	.
.	.	(>16ff#k	.
4d#X 4A	.	8aa')	.
.	.	16r	.
.	.	(>16ggJk	.
4e 4G	.	4ee)	.
*v	*v	*	*
=21	=21	=21
*ped	*	*
4BB	8b'L	fz
.	16r	.
.	(>16cc'k 16b	.
*clefG2	*	*
4a 4f# 4B	8cc#X' 8b	.
.	8dd'J 8b	.
4a 4f# 4B	4dd#X^< 4b)	.
*Xped	*	*
.	.	.
*clefF4	*	*
=22	=22	=22
*ped	*	*
(>4E	(>16eeKL	.
.	8ggg'J)	.
.	16r	.
4g) 4B	(>8fff#mL	.
.	8eee	>
4r	8ccc	.
.	8bbJ)	]
*Xped	*	*
.	.	.
=23	=23	=23
!	!LO:TX:b:t=leggiero.	!
*ped	*	*
4BB'	8aa#XL	.
.	8ff#J	.
*clefG2	*	*
4a 4d#X 4B	(>12cccL	.
.	12aa#	.
!	!LO:TX:b:t=P:problem:'3' nad nutami	!
.	12bbJ)	.
4a 4d# 4B	(>12aanL	.
.	12bb-X	.
!	!LO:TX:b:t=P:problem:'3' nad nutami	!
.	12gg#XJ)	.
*Xped	*	*
.	.	.
*clefF4	*	*
=24	=24	=24
*ped	*	*
4E	(>12aaL	.
.	12ggn	.
!	!LO:TX:b:t=P:problem:'3' nad nutami	!
.	12ff#J)	.
2g 2B 2G	[>2ee^<	.
*Xped	*	*
=25!||	=25!||	=25!||
*	*^	*
!	!LO:TX:a:t=dolce.	!	!
*ped	*	*	*
4GG'	(>8eeL]	4fn	p
.	8ddJ	.	.
4d 4G	4b	4f	.
4d [>4G	4a	4f	.
*Xped	*	*	*
.	.	.	.
!!LO:LB:g=original
=26	=26	=26	=26
.	16qb/L	.	.
.	16qa/J	.	.
4G] 4C	2g)	4e	.
4G 4C	.	4e	.
4G [>4C	(>[>4ee^	4e	.
=27	=27	=27	=27
8qA-X/	.	.	.
4G 4C]	8eeL]	4fn	.
.	8ddJ	.	.
4G 4C	4b	4f	.
4G 4C	4a	4f	.
=28	=28	=28	=28
.	16qb/L	.	.
.	16qa/J	.	.
4G 4C	2g)	4e	.
4G 4C	.	4e	.
[>4A 4C	4cc^	4e	.
=29	=29	=29	=29
*^	*	*	*
2A]	4D	(>8.ccL	4fn	.
.	.	16bk	.	.
.	2E 2AA	8dd	2e	.
.	.	8ccJ	.	.
4c	.	4a^)	.	.
=30	=30	=30	=30	=30
2A	4D	(>8.ccL	4fn	.
.	.	16bk	.	.
.	2E 2AA	8dd	2e	.
.	.	8ccJ	.	.
4c	.	4a^)	.	.
*	*	*v	*v	*
=31	=31	=31	=31
8.B\L d#>\	2BB	8.g#XL	.
16Ak	.	16f#k	.
8.c>#X	.	8.a	.
16BJk	.	16g#Jk 16d#y	.
(>4G#X 4E	4ryy	(<4e^>	.
*v	*v	*	*
=32	=32	=32
4e`)	4ee`)	.
4e`	4ee`	.
4e^	[>4ee^	.
=33	=33	=33
*	*^	*
4r	(>8eeL]	4fn	.
.	8ddJ	.	.
4G'	4b	4f	.
[4G^	4a	4f	.
!!LO:PB:g=original
=34	=34	=34	=34
.	16qb/L	.	.
.	16qa/J	.	.
4G] 4C	2g)	4e	.
4G 4C	.	4e	.
4G [>4C	[>4ee^	4e	.
=35	=35	=35	=35
8qA-X/	.	.	.
4G 4C]	(>8eeL]	4fn	.
.	8ddJ	.	.
4G 4C	4b	4f	.
4G 4C	4a	4f	.
=36	=36	=36	=36
.	16qb/L	.	.
.	16qa/J	.	.
4G 4C	2g)	4e	.
4G 4C	.	4e	.
4G 4C	4cc^	4e	.
=37	=37	=37	=37
4F# 4D	(>8.bL	4c	.
.	16ak	.	.
4F# 4D	8b	4c	.
.	8aJ	.	.
4G [>4D [<4GG\	4d)	4B	.
=38	=38	=38	=38
4F# 4D] 4GG\]	(>8.b^L	4c	.
.	16ak	.	.
4F# 4D 4GG\	8b^	4c	.
.	8a	.	.
4F# 4D 4GG\	8b^	4c	.
.	8aJ	.	.
=39	=39	=39	=39
4G 4D 4GG\	4g)	4B	<
4E-X 4GG\	[>2a-X^	4c	.
4En 4GG\	.	4c#X	[
=40	=40	=40	=40
4Fn 4GG\	2.a-]	4d	>
4E 4GG\	.	4c#X	.
4E-X 4GG\	.	4cn	]
=41	=41	=41	=41
4E-X 4GG\	(>8.b-XL	4c	]
.	16a-Xk	.	.
4E- 4GG\	8b-	4c	.
.	8a-J	.	.
4D 4GG\	4d)	4Bn	.
!!LO:LB:g=original
=42	=42	=42	=42
4E-X 4GG\	(>8.b-XL	4c	.
.	16a-Xk	.	.
4E- 4GG\	8b-	4c	.
.	8a-	.	.
4E- 4GG\	8b-	4c	.
.	8a-J	.	.
=43	=43	=43	=43
4D 4GG\	4g')	4B	.
4E-X 4GG\	[>2an^	4c	.
4En 4GG\	.	4c#X	.
=44	=44	=44	=44
4Fn 4GG\	2a]	4d	.
4E 4GG\	.	4c#X	.
4E-X 4GG\	4ryy	4cn\	.
=45	=45	=45	=45
4D 4GG\	4g	4B	.
4E-X 4GG\	[>2a-X^	4c	.
4En 4GG\	.	4c#X	.
=46	=46	=46	=46
4Fn 4GG\	4g#X]	4d	.
4E 4GG\	(>2an^	4c#X	.
4E-X 4GG\	.	4cn	.
=47	=47	=47	=47
4D 4GG\	4g	4Bn	.
4E-X 4GG\	(>[>2an^)	4c	.
4E 4GG\	.	4c#X	.
=48	=48	=48	=48
4Fn 4GG\	2a]	4d	pp
4E 4GG\	.	4c#X	.
4E-X 4GG\	4a-X^)	4cn	.
*	*v	*v	*
=49	=49	=49
4D 4GG\	(>4g 4B	.
4E-X 4GG\	4a-X 4c	<
4E- 4GG\	4a- 4c	[[
!!LO:LB:g=original
=50	=50	=50
4E-X 4GG\	4a-X 4c	<
!	!LO:TX:a:t=stretto	!
4En 4GG\	4an 4c#X	.
4E 4GG\	4a 4c#	.
=51	=51	=51
4E 4GG\	4a 4c#X	.
!LO:TX:t=cresc_:problem:dynamics with extention lines	!	!
!	!	!LO:HP:b:B:t=cresc:ext=ud
*	*	*^
4E 4FF#X\	4a#X 4c#	.	<
4E 4FF#\	4a# 4c#	.	.
=52	=52	=52	=52
4E 4FF#\	4a#X 4c#X	.	.
4E#X 4BB\	4b 4d	.	.
4F# 4BB	4b 4d#X)	[	[
*	*	*v	*v
=53	=53	=53
!	!LO:TX:a:B:t=in Tempo.	!
.	(>32qB/L	.
.	32qe/J	.
4E 4EE	8.aL	f
.	16gJk	.
4B 4G	4f#	.
4B 4G	4e	.
=54	=54	=54
4AA	2dd^	.
4e 4c 4A	.	.
4e 4c 4A	4cc	.
=55	=55	=55
*^	*	*
4e 4c	2.D	8.bL	.
.	.	16ak	.
4d 4B	.	8e	.
.	.	8f#J	.
4c 4A	.	4d	.
*v	*v	*	*
=56	=56	=56
.	[<8qg/	.
4GG	2cc^\ 2g\]	.
4d 4G	.	.
4r	4b	.
=57	=57	=57
4BB'	8b`L)	.
.	16r	.
.	(>16cc'k 16b	.
*clefG2	*	*
4a 4f# 4B	8cc#X' 8b	.
.	8dd'J 8b	.
!	!LO:TX:t=P:problem:brak początku łuku	!
4a 4f# 4B	(>4dd#X^< [<4b)	.
*clefF4	*	*
!!LO:LB:g=original
=58	=58	=58
4E	8ee`L 8b])	.
.	16r	.
.	(>16ff#k	.
*clefG2	*	*
4g 4B	8gg	.
.	8cccJ	.
4g 4B	(>4bb^<)	.
*clefF4	*	*
=59	=59	=59
*^	*	*
4r	2.E	8aa#X`L)	.
.	.	16r	.
.	.	(>16ff#k	.
4f# 4c#X 4A#X	.	8aa#)	.
.	.	16r	.
.	.	(>16aanJk	.
4f# 4cn 4An	.	4ff#)	.
=60	=60	=60	=60
4r	2.E	8aa`L	.
.	.	16r	.
.	.	(>16ff#k	.
4d#X 4A	.	8aa)	.
.	.	16r	.
.	.	(>16ggJk	.
4e 4G	.	4ee)	.
*v	*v	*	*
=61	=61	=61
4BB	8b`L	.
.	16r	.
.	(>16cc'k 16b	.
*clefG2	*	*
4a 4f# 4B	8cc#X' 8b	.
.	8dd'J 8b	.
4a 4f# 4B	4dd#X^< 4b)	.
*clefF4	*	*
=62	=62	=62
(>4E	(>16eeKL	.
.	8ggg`J)	.
.	16r	.
4g 4B)	(>8fff#mL	.
.	8eee	.
4r	8ccc	.
.	8bbJ)	.
=63	=63	=63
*ped	*	*
4E	(>8aa#XL	p
.	8bb	.
4a 4d#X 4B	8ccc	.
.	8aa#J)	.
4a 4d# 4B	(>12bbL	.
.	12ff#	.
!	!LO:TX:b:t=P:problem:'3' nad nutami i tak juz do końca utworu	!
*Xped	*	*
.	12aanJ)	.
!!LO:LB:g=original
=64	=64	=64
*ped	*	*
(>4E	(>16ggKL	.
.	8ggg`J)	.
.	16r	.
4g 4B)	(>8fff#mL	.
.	8eee	.
4r	8ccc	.
*Xped	*	*
.	8bbJ)	.
=65	=65	=65
*ped	*	*
4E	(>8aa#XL	.
.	8bb	.
*clefG2	*	*
4b 4a 4d#X 4B	8ccc	.
.	8aa#J)	.
4b 4a 4d# 4B	(>12bbL	.
.	12ff#	.
*Xped	*	*
.	12aanJ)	.
*clefF4	*	*
=66	=66	=66
*	*8va	*
*ped	*	*
4E	(>16ggKL	.
.	8eeee`J)	.
.	16r	.
!	!LO:TX:b:t=ritenuto.	!
.	16qcccc/L	.
.	16qeeee/J	.
*clefG2	*	*
4b 4g 4e 4B	(>12ccccL	.
.	12bbb	.
.	12gggJ)	.
4r	(>12eeeL	.
.	12ccc	.
.	12bbJ)	.
*Xped	*	*
.	.	.
*	*X8va	*
*clefF4	*	*
=67	=67	=67
!	!LO:TX:a:t=loco.	!
*ped	*	*
4E	8aa#XL	.
.	8ff#J	.
*clefG2	*	*
4b 4a 4d#X 4B	(>12cccL	.
.	12aa#	.
.	12bbJ)	.
4b 4a 4d# 4B	(>12aanL	.
.	12bb-X	.
.	12gg#XJ)	.
*Xped	*	*
.	.	.
*clefF4	*	*
=68	=68	=68
*^	*	*
*ped	*	*	*
4ryy	N(>2.E	(>12aaL	.
.	.	12ggn	.
.	.	12ff#J)	.
2g;< 2BN)\	.	2ee;	.
*v	*v	*	*
==	==	==
*-	*-	*-
!!title: @{OTL}; @{OPS} @{ONM} publisher: @{PPR}
!!!RDF**kern: > = above
!!!RDF**kern: < = below
!!!RDF**kern: N = linked
!!!ENC: Jacek Iwaszko
!!!END: 2017-12-19
!!!EED: Leszek Kubiak
!!!EST: revision finished 2018-12-20
!!!EED2: Wojciech Jakubiak-Danek
!!!EST2: revision finished 2018-12-30
!!!EED3: Antoni Szymański
!!!EST3: revision finished 2020-06-10
!!!rism-genre: Mazurka
!!!rism-key: E minor
!!!rism-opus: op.  17, no. 2
!!!rism-title: Mazurka in E minor op.  17, no. 2
!!!rism-permalink: https://opac.rism.info/search?id=300605168&View=rism
!!!rism-773a-OPR: 300605166
!!!rism-parent-permalink: https://opac.rism.info/search?id=300605166&View=rism
